public/resources/logo.svg

<svg viewBox="0 0 300 300" xmlns="http://www.w3.org/2000/svg"><path fill="#002D74" d="M150.15 0L21 75v150l129.15 75 129.15-75V75L150.15 0zm90.05 158.3h-33.35c-2.45 17.25-12.6 32.65-27.95 41.5a57.215 57.215 0 01-57.55 0c-17.65-10.25-28.55-29.15-28.55-49.55v-.55c0-20.4 10.85-39.3 28.5-49.55a57.215 57.215 0 0157.55 0c15.3 8.9 25.5 24.3 27.9 41.5h33.35v16.65h.1z"/></svg>

<svg width="300" height="300" viewBox="0 0 300 300" fill="none" xmlns="http://www.w3.org/2000/svg">
<path d="M150.15 0L21 75V225L150.15 300L279.3 225V75L150.15 0ZM240.2 158.3H206.85C204.4 175.55 194.25 190.95 178.9 199.8C161.1 210.15 139.15 210.15 121.35 199.8C103.7 189.55 92.8 170.65 92.8 150.25V149.7C92.8 129.3 103.65 110.4 121.3 100.15C139.1 89.8 161.05 89.8 178.85 100.15C194.15 109.05 204.35 124.45 206.75 141.65H240.1V158.3H240.2Z" fill="#002D74"/>
</svg>
